svg/OSM-icons/aeroway #98b8df °373737 !label=enaeroway,deLuftfahrt/11008;aeroway=terminal;!name=;!internet_access=;!internet_access..fee=;!label=enairport terminal,deFlughafen Terminal.svg

<svg xmlns="http://www.w3.org/2000/svg" viewBox="0 0 580 580" enable-background="new 0 0 580 580"><path fill="#111" stroke="#eee" stroke-width="3.408" d="m66.28 1.768c-41.34 0-64.57 21.371-64.57 65.04v450.12c0 40.844 20.895 62.23 62.19 62.23h452.02c41.31 0 62.23-20.315 62.23-62.23v-450.12c0-42.602-20.923-65.04-63.52-65.04-.003 0-448.5-.143-448.35 0z"/><g fill="#fff"><path d="m212.26 36.452c.06-34 51.31-34 51.27.956l-.002 142.69 199.76 120.06v52.718l-198.8-65.43v106.65l46.01 35.944v41.695l-70.927-22.05-70.928 22.05.0001-41.696 45.529-35.944v-106.65l-198.83 65.43v-52.717l196.91-120.06.002-143.65" transform="matrix(.37201.48693-.48693.37201 454.02-51.982)"/><path d="m540.59 378.95h-501.18c-5.735 0-10.384 4.649-10.384 10.384v118.81c0 5.734 4.649 10.384 10.384 10.384h372.23c5.734 0 10.383-4.649 10.383-10.384v-57.62h90.28v57.62c0 5.734 4.648 10.384 10.383 10.384h17.898c5.734 0 10.385-4.649 10.385-10.384v-118.81c0-5.735-4.65-10.384-10.384-10.384m-118.54 44.696v-20.233h90.24v20.233h-90.24m-367.5 0v-20.233h90.24v20.233h-90.24m-.018 69.947v-43.07h90.28v43.07h-90.28m125.11-69.947v-20.233h90.24v20.233h-90.24m.13 69.947v-43.07h90.28v43.07h-90.28m122.07-69.947v-20.233h90.24v20.233h-90.24m-.02 69.947v-43.07h90.28v43.07h-90.28"/><path d="m208.25 288.19h-6.04c6.667-10.64 10.388-22.521 13.745-33.24.556-1.775 1.109-3.542 1.671-5.289.28-.872.441-1.766.494-2.659.541-.733.871-1.63.871-2.611v-14.557c0-2.438-1.977-4.415-4.415-4.415h-134.86c-2.438 0-4.415 1.977-4.415 4.415v14.557c0 .919.282 1.772.763 2.479 3.3 17.03 8.349 30.744 15.248 41.32h-5.264c-5.935 0-10.746 4.812-10.746 10.746v89.17c0 5.935 4.811 10.745 10.746 10.745 22.62 0 37.923.039 48.16.098 1.448.803 3.194 1.337 5.25 1.478.581.04 1.483.081 2.769.117 2.361.066 5.963.12 11.01.164 11.157.097 29.15.144 55 .144 5.935 0 10.746-4.811 10.746-10.745v-91.17c-.0001-5.934-4.812-10.746-10.747-10.746"/><path opacity=".5" d="m210.69 165.99h-127.09c-4.584 0-8.3 3.716-8.3 8.3v54.59c0 4.584 3.716 8.3 8.3 8.3h127.09c4.584 0 8.3-3.716 8.3-8.3v-54.59c-.0001-4.584-3.716-8.3-8.3-8.3"/><path d="m495.26 347.48h-152.93c-3.887 0-7.04 3.151-7.04 7.04l-.002 32.626c0 3.888 3.152 7.04 7.04 7.04h152.93c3.887 0 7.04-3.151 7.04-7.04v-32.626c0-3.887-3.153-7.04-7.04-7.04"/><path opacity=".25" d="m540.58 378.96h-501.16c-5.735 0-10.384 4.649-10.384 10.384l-.0001 118.8c0 2.754 1.094 5.395 3.041 7.343 1.948 1.947 4.589 3.041 7.343 3.041h501.16c5.734 0 10.383-4.649 10.383-10.384v-118.8c0-5.734-4.649-10.383-10.383-10.383"/><path d="m214.58 163.99h-55.918v-84.11c0-2.038-1.652-3.689-3.689-3.689h-15.993c-2.038 0-3.689 1.652-3.689 3.689v84.11h-55.57c-2.438 0-4.415 1.977-4.415 4.415v14.557c0 2.438 1.977 4.415 4.415 4.415h134.86c2.438 0 4.415-1.977 4.415-4.415v-14.557c.0001-2.439-1.976-4.415-4.415-4.415"/></g></svg>

<?xml version="1.0" encoding="utf-8"?>
<!-- Generator: Adobe Illustrator 15.0.0, SVG Export Plug-In . SVG Version: 6.00 Build 0)  -->
<!DOCTYPE svg PUBLIC "-//W3C//DTD SVG 1.1//EN" "http://www.w3.org/Graphics/SVG/1.1/DTD/svg11.dtd">
<svg version="1.1"
	 id="svg2" sodipodi:version="0.32" inkscape:version="0.47 r22583" sodipodi:docname="transport_airport_gate.svg" xmlns:cc="http://creativecommons.org/ns#" xmlns:sodipodi="http://sodipodi.sourceforge.net/DTD/sodipodi-0.dtd" xmlns:svg="http://www.w3.org/2000/svg" xmlns:inkscape="http://www.inkscape.org/namespaces/inkscape" xmlns:rdf="http://www.w3.org/1999/02/22-rdf-syntax-ns#" xmlns:dc="http://purl.org/dc/elements/1.1/" inkscape:output_extension="org.inkscape.output.svg.inkscape"
	 xmlns="http://www.w3.org/2000/svg" xmlns:xlink="http://www.w3.org/1999/xlink" x="0px" y="0px" width="580px" height="580px"
	 viewBox="0 0 580 580" enable-background="new 0 0 580 580" xml:space="preserve">
<defs>
	
	
		<inkscape:perspective  id="perspective24" inkscape:persp3d-origin="290 : 193.33333 : 1" sodipodi:type="inkscape:persp3d" inkscape:vp_z="580 : 290 : 1" inkscape:vp_x="0 : 290 : 1" inkscape:vp_y="0 : 1000 : 0">
		</inkscape:perspective>
	
		<inkscape:perspective  id="perspective2683" inkscape:persp3d-origin="306.082 : 204.39034 : 1" sodipodi:type="inkscape:persp3d" inkscape:vp_z="612.164 : 306.58551 : 1" inkscape:vp_x="0 : 306.58551 : 1" inkscape:vp_y="0 : 1000 : 0">
		</inkscape:perspective>
	
		<inkscape:perspective  id="perspective2953" inkscape:persp3d-origin="306.082 : 204.39034 : 1" sodipodi:type="inkscape:persp3d" inkscape:vp_z="612.164 : 306.58551 : 1" inkscape:vp_x="0 : 306.58551 : 1" inkscape:vp_y="0 : 1000 : 0">
		</inkscape:perspective>
	
		<inkscape:perspective  id="perspective3071" inkscape:persp3d-origin="180.936 : 163.92867 : 1" sodipodi:type="inkscape:persp3d" inkscape:vp_z="361.87201 : 245.89301 : 1" inkscape:vp_x="0 : 245.89301 : 1" inkscape:vp_y="0 : 1000 : 0">
		</inkscape:perspective>
	
		<inkscape:perspective  id="perspective3724" inkscape:persp3d-origin="0.5 : 0.33333333 : 1" sodipodi:type="inkscape:persp3d" inkscape:vp_z="1 : 0.5 : 1" inkscape:vp_x="0 : 0.5 : 1" inkscape:vp_y="0 : 1000 : 0">
		</inkscape:perspective>
	
		<inkscape:perspective  id="perspective7956" inkscape:persp3d-origin="0.5 : 0.33333333 : 1" sodipodi:type="inkscape:persp3d" inkscape:vp_z="1 : 0.5 : 1" inkscape:vp_x="0 : 0.5 : 1" inkscape:vp_y="0 : 1000 : 0">
		</inkscape:perspective>
	
		<inkscape:perspective  id="perspective8355" inkscape:persp3d-origin="0.5 : 0.33333333 : 1" sodipodi:type="inkscape:persp3d" inkscape:vp_z="1 : 0.5 : 1" inkscape:vp_x="0 : 0.5 : 1" inkscape:vp_y="0 : 1000 : 0">
		</inkscape:perspective>
</defs>
<sodipodi:namedview  id="base" inkscape:pageopacity="0.0" inkscape:window-y="0" inkscape:window-width="1280" inkscape:window-height="973" inkscape:pageshadow="2" inkscape:current-layer="svg2" inkscape:window-x="0" showgrid="false" bordercolor="#666666" guidetolerance="10.0" inkscape:zoom="0.3535534" pagecolor="#ffffff" objecttolerance="10.0" borderopacity="1.0" inkscape:cx="364.00586" inkscape:cy="-336.08367" gridtolerance="10.0" inkscape:window-maximized="1">
	</sodipodi:namedview>
<g id="g1327">
	<path id="path1329" fill="#111111" stroke="#EEEEEE" stroke-width="3.408" d="M66.275,1.768c-41.335,0-64.571,21.371-64.571,65.036
		v450.123c0,40.844,20.895,62.229,62.192,62.229h452.024c41.307,0,62.229-20.315,62.229-62.229V66.804
		c0-42.602-20.923-65.036-63.521-65.036C514.625,1.768,66.133,1.625,66.275,1.768z"/>
</g>
<g>
	<g id="g1970" transform="matrix(0.37201227,0.48692872,-0.48692872,0.37201227,454.02456,-51.9819)">
		<path id="path1972" fill="#FFFFFF" d="M212.264,36.452c0.06-34,51.308-34,51.275,0.956l-0.002,142.694l199.765,120.061
			l-0.001,52.718l-198.804-65.43l0.001,106.648l46.008,35.944l-0.001,41.695l-70.927-22.047l-70.928,22.047l0.001-41.696
			l45.529-35.944l0-106.647l-198.827,65.43l0-52.717l196.909-120.063L212.264,36.452z"/>
	</g>
	<path fill="#FFFFFF" d="M540.588,378.947H39.411c-5.735,0-10.384,4.649-10.384,10.384v118.807c0,5.734,4.649,10.384,10.384,10.384
		h372.231c5.734,0,10.383-4.649,10.383-10.384v-57.616h90.281v57.615c0,5.734,4.648,10.384,10.383,10.384h17.898
		c5.734,0,10.385-4.649,10.385-10.384V389.331C550.972,383.596,546.322,378.947,540.588,378.947z M422.045,423.643V403.41h90.244
		v20.233H422.045z M54.548,423.643V403.41h90.243v20.233H54.548z M54.53,493.59v-43.067h90.28v43.067H54.53z M179.644,423.643
		V403.41h90.242v20.233H179.644z M179.774,493.59v-43.067h90.28v43.067H179.774z M301.846,423.643V403.41h90.242v20.233H301.846z
		 M301.826,493.59v-43.067h90.279v43.067H301.826z"/>
	<path fill="#FFFFFF" d="M208.246,288.194h-6.036c6.667-10.64,10.388-22.521,13.745-33.241c0.556-1.775,1.109-3.542,1.671-5.289
		c0.28-0.872,0.441-1.766,0.494-2.659c0.541-0.733,0.871-1.63,0.871-2.611v-14.557c0-2.438-1.977-4.415-4.415-4.415H79.72
		c-2.438,0-4.415,1.977-4.415,4.415v14.557c0,0.919,0.282,1.772,0.763,2.479c3.3,17.027,8.349,30.744,15.248,41.321h-5.264
		c-5.935,0-10.746,4.812-10.746,10.746v89.165c0,5.935,4.811,10.745,10.746,10.745c22.62,0,37.923,0.039,48.163,0.098
		c1.448,0.803,3.194,1.337,5.25,1.478c0.581,0.04,1.483,0.081,2.769,0.117c2.361,0.066,5.963,0.12,11.012,0.164
		c11.157,0.097,29.148,0.144,55.001,0.144c5.935,0,10.746-4.811,10.746-10.745V298.94
		C218.992,293.006,214.181,288.194,208.246,288.194z"/>
	<path opacity="0.5" fill="#FFFFFF" d="M210.693,165.994H83.605c-4.584,0-8.3,3.716-8.3,8.3v54.588c0,4.584,3.716,8.3,8.3,8.3
		h127.088c4.584,0,8.3-3.716,8.3-8.3v-54.588C218.992,169.71,215.277,165.994,210.693,165.994z"/>
	<path fill="#FFFFFF" d="M495.26,347.483H342.332c-3.887,0-7.039,3.151-7.039,7.039l-0.002,32.626c0,3.888,3.152,7.039,7.039,7.039
		h152.93c3.887,0,7.039-3.151,7.039-7.039v-32.626C502.299,350.635,499.146,347.483,495.26,347.483z"/>
	<path opacity="0.25" fill="#FFFFFF" d="M540.582,378.961H39.42c-5.735,0-10.384,4.649-10.384,10.384l-0.001,118.799
		c0,2.754,1.094,5.395,3.041,7.343c1.948,1.947,4.589,3.041,7.343,3.041h501.163c5.734,0,10.383-4.649,10.383-10.384V389.344
		C550.965,383.61,546.316,378.961,540.582,378.961z"/>
	<path fill="#FFFFFF" d="M214.576,163.994h-55.918V79.885c0-2.038-1.652-3.689-3.689-3.689h-15.993
		c-2.038,0-3.689,1.652-3.689,3.689v84.109H79.72c-2.438,0-4.415,1.977-4.415,4.415v14.557c0,2.438,1.977,4.415,4.415,4.415h134.856
		c2.438,0,4.415-1.977,4.415-4.415v-14.557C218.992,165.97,217.015,163.994,214.576,163.994z"/>
</g>
</svg>
